X:1
T:God Will Take Care of You
T:God Will Take Care of You
T:Walter Stillman Martin
T:Civilla Durfee Martin, 1904
T:Public Domain Courtesy of the Cyber Hymnal™
C:Walter Stillman Martin
Z:Public Domain
Z:Courtesy of the Cyber Hymnal™
%%score ( 1 2 ) ( 3 4 )
L:1/8
Q:1/4=95
M:6/8
K:Bb
V:1 treble 
V:2 treble 
V:3 bass 
V:4 bass 
V:1
 [B,D][CE][^C=E] ([DF][FB])[F=c] | [Fd]2 [Ec] [DB]3 | [EF][EA][EG] [CE]2 [EG] | ([DF]3 [B,D]3) | %4
w: 1.~Be not dis- mayed * what-|e’er be- tide,|God will take care of|you; *|
w: 2.~Through days of toil * when|heart doth fail,|God will take care of|you; *|
w: 3.~All you may need * He|will pro- vide,|God will take care of|you; *|
w: 4.~No mat- ter what * may|be the test,|God will take care of|you; *|
 [B,D][CE][^C=E] ([DF][FB])[F=c] | [Fd]2 [Ec] [DB]3 | [EF][EA][EG] [EF]2 [Ec] | [DB]6 || %8
w: Be- neath His wings * of|love a- bide,|God will take care of|you.|
w: When dan- gers fierce * your|path as- sail,|God will take care of|you.|
w: No- thing you ask * will|be de- nied,|God will take care of|you.|
w: Lean, wear- y one, * up-|on His breast,|God will take care of|you.|
"^Refrain" [GB]3 [FA]2 [EG] | [EG]2 [DF] [DF]3 | [DF][FA][EG] [CE]3 | [CE][EG][DF] [B,D]3 | %12
w: ||||
w: God will take|care of you,|Through ev- ery day,|o’er all the way;|
w: ||||
w: ||||
 [DF]3 [FB]2 [FB] | (cB)[Gc] !fermata![^Fd]3 | [Gc][GB][EG] (FB)A | B6 |] %16
w: ||||
w: He will take|care * of you,|God will take care * of|you.|
w: ||||
w: ||||
V:2
 x6 | x6 | x6 | x6 | x6 | x6 | x6 | x6 || x6 | x6 | x6 | x6 | x6 | G2 x4 | x3 D2 x | (DB,E D3) |] %16
V:3
 [B,,F,][B,,F,][B,,F,] B,2 [F,A,] | B,2 [F,A,] [B,,F,]3 | [F,A,][F,C][F,B,] [F,A,]2 [F,A,] | %3
 (B,3 F,3) | [B,,F,][B,,F,][B,,F,] B,2 [F,A,] | B,2 [F,A,] [B,,F,]3 | %6
 [F,A,][F,C][F,B,] [F,A,]2 [F,A,] | [B,,B,]6 || [E,B,]3 [E,B,]2 [E,B,] | %9
 [B,,B,]2 [B,,B,] [B,,B,]3 | F,F,F, [F,A,]3 | [F,A,][F,A,]F, [B,,F,]3 | [B,,B,]3 [D,B,]2 [D,B,] | %13
 [E,B,]2 [E,G,] [D,A,]3 | [E,G,][E,B,][E,B,] [F,B,]2 F, | (F,D,G, F,3) |] %16
V:4
 x3 (B,,D,) x | B,2 x4 | x6 | B,,6 | x3 (B,,D,) x | B,2 x4 | x6 | x6 || x6 | x6 | F,F,F, x3 | %11
 x2 F, x3 | x6 | x6 | x5 F, | B,,6 |] %16

